X:1
T:Title
%%score { ( 1 3 ) | 2 }
L:1/8
M:4/4
K:Ab
V:1 treble nm="Grand Piano"
V:3 treble 
V:2 bass 
V:1
 z4 z2[Q:1/4=96] [A,C][B,D] | [CE]2 [CA]2 [CA]2 [Ec]2 | B4 F4 | G>B G>B F2 G2 | %4
[M:3/4] [DF]4 [CE]2 |[M:1/4] [A,C]>[B,D] |[M:4/4] [CE]2 [CA]2 [CA]2 [Ec]2 | [DB]4 [DF]4 | %8
 [=DG]>[DA] [DG]>[DF] [DB]2 [DB]2 |[M:3/4] E6 |[M:1/4] E>E |[M:4/4] d6 z2 | c6 z2 | c6 z2 | %14
[M:3/4] A6 |[M:1/4] A>A |[M:4/4] B2 A2 G2 F2 | [CE]>[CA] [Ec]4 [Ec]>[Ec] | %18
 [=Dc]2 [DB]2 [DA]2 [Dc]2 |[M:3/4] B6 |[M:1/4] E>E |[M:4/4] d->[Ad-] [Bd-]>[Ad-] [Gd]2 e>e | %22
 c->[Fc-] [Gc-]>[Fc-] [Ec]2 c>c | c->[Fc-] [Gc-]>[Fc-] [=Ec]2 GB |[M:3/4] A6 |[M:1/4] A>A | %26
[M:4/4] B2 A2 G2 F2 | [CE]>[CA] [Ec]4 [Ae]>[Ae] | [Ge]3 [Gd] [EAc]2 [DEB]2 |[M:3/4] [CEA]6 |] %30
V:2
 z4 z2 [A,,E,][A,,E,] | [A,,A,]2 [A,,A,]2 [A,,A,]2 [A,,A,]2 | [D,F,D]4 [D,B,D]4 | %3
 [E,B,D]>[E,G,D] [E,B,D]>[E,G,D] [E,G,D]2 [E,G,D]2 |[M:3/4] [A,,A,]6 |[M:1/4] [A,,E,]>[A,,E,] | %6
[M:4/4] [A,,A,]2 [A,,A,]2 [A,,A,]2 [A,,A,]2 | [D,F,]4 [D,B,]4 | %8
 [B,,B,]>[B,,B,] [B,,B,]>[B,,A,] [B,,F,]2 [B,,A,]2 |[M:3/4] [E,G,]6 |[M:1/4] z2 | %11
[M:4/4] [E,B,]>[F,B,] [G,E]>[F,E] [E,B,]2 z2 | [A,,A,]>[A,,A,] [A,,E,]>[A,,A,] [A,,A,]2 z2 | %13
 [C,G,]>[=D,G,] [=E,C]>[D,C] [C,G,]2 z2 |[M:3/4] [F,A,C]>[G,B,] [A,C]>[G,B,] [F,A,]2 | %15
[M:1/4] [E,_G,C]>[E,G,C] |[M:4/4] [D,F,D]2 [D,F,D]2 [D,A,D]2 [D,A,D]2 | %17
 [A,,A,]>[A,,A,] [A,,A,]4 [A,,A,]>[A,,A,] | [B,,A,]2 [B,,A,]2 [B,,F,]2 [B,,A,]2 |[M:3/4] [E,G,E]6 | %20
[M:1/4] z2 |[M:4/4] [E,B,]>[F,B,] [G,E]>[F,E] [E,B,]2 z2 | %22
 [A,,A,]>[A,,A,] [A,,E,]>[A,,A,] [A,,A,]2 z2 | [C,G,]>[=D,G,] [=E,C]>[D,C] [C,G,]2 z2 | %24
[M:3/4] [F,A,C]>[G,B,] [A,C]>[G,B,] [F,A,]2 |[M:1/4] [E,_G,C]>[E,G,C] | %26
[M:4/4] [D,F,D]2 [D,F,D]2 [D,A,D]2 [D,A,D]2 | [A,,A,]>[A,,A,] [A,,A,]4 [A,C]>[A,C] | %28
 [E,B,]3 [E,B,] E,2 E,2 |[M:3/4] A,,6 |] %30
V:3
 x8 | x8 | x8 | x8 |[M:3/4] x6 |[M:1/4] x2 |[M:4/4] x8 | x8 | x8 |[M:3/4] x6 |[M:1/4] x2 | %11
[M:4/4] G>A B>A G2 e>e | E>F G>F E2 c>c | =E>F G>F E2 GB |[M:3/4] z z/ C/ F>C C2 |[M:1/4] x2 | %16
[M:4/4] x8 | x8 | x8 |[M:3/4] x6 |[M:1/4] x2 |[M:4/4] G2 z2 z4 | E2 z2 z4 | =E2 z2 z4 | %24
[M:3/4] z z/ C/ F>C C2 |[M:1/4] x2 |[M:4/4] x8 | x8 | x8 |[M:3/4] x6 |] %30

